!!!OTL: Am Samstag Abend (2-72) S. 217
!!!id: P0945
**kern
*clefG2
*k[f#]
*G:
{4d
=1
2g
4g
=2
4a
4b
4cc
=3
4.dd
8ee
4dd
=4
2cc}
=5
{4ee
=6
4.dd
8ee
4dd
=7
4g
4a
4b
=8
[2.cc
=9
2cc]}
=10
{8b
8cc
=11
4dd
4dd
4ee
=12
4.dd
8cc
4a
=13
2.b
=14
2a}
=15
{8a
8b
=16
4cc
4cc
4dd
=17
4.b
8a
8a
8g
=18
4g
4f#}
=19
{4g
=20
4a
4cc
4b
=21
4a
4b
4a
=22
[2.g
=23
2g]}
==
*-
!!!minrhy: 8
!!!meters: 3/4 ]  ZZ[5
!!!cut: Am Samstag Abend (2-72) S. 217
!!!reg: Lothringen
!!!trd: PINCK, Louis: Verklingende Weisen, Bd 2, Metz 1928
!!!rhy1: X_  X__X_  X_X_X_  X_.XX_  X__
!!!rhy2: X_  X_.XX_  X_X_X_  X__.  ^__
!!!key: P0945  08  G 3/4 ]  ZZ[5
!!!mod: HEPTATONIK IONISCH]  AMBITUS[9
!!!kad: 442-71
!!!akz: 1254_5144_5532_431_2211_
!!!fot: 'a__b__c__d__e__
!!!for: 'a__b__c__d__e__
!!!fok: '^a_Vd_^d_^d_^__
!! PHRAS[AUFTAKTIG]
!!!fkt: Liebe, Untreue
!! LOTH VKL
!! PR[15] 2K[5] 2G[29] 3K[0] 3G[0] 4A[10] 4Ü[0] 5A[0] 6K[0] 6G[0]
!! 7K[0] 7G[0] 8A[0] MEHR[0] SI[44] ABS[41] SR[34] SP[10]
!! ST[8] 2k[7] 2g[27] 3k[0] 3g[2] 4d[2] 4ü[0] 5d[2] 6k[0] 6g[0]
!! 7k[0] 7g[0] 8d[0] mehr[0] si[41] dm[+3] sr[34] sp[7]
!! 1F[2] 2F[56] 3F[38] 4F[0] LF[0] 2P[2] 3P[2] 4P[0] TRI[0] DF[5] AB[45]
!! TF[0] U3K[0] U3[0] U4[0] U4Ü[0] U5[2] U6K[0] U6[0] U7K[0] U7[0]
!! N1[12] N2K[0] N2[19] N3K[0] N3[19] N4[14] N4Ü[0] N5[24] N6K[0] N6[7]
!!!n7k: 0] N7[0] O1[2] O2K[0] O2[0] O3K[0] O3[0] HÖ[0
